X: 351
M: C
L: 1/8
K: D
V: 1
|: g |
(f/g/a) fd (f/g/a) fd | (e/f/g) ec (e/f/g) ec |\
(f/g/a) fd (f/g/a) fd | (e/g/f/e/) (a/g/f/e/) d2 d :|
V: 2 clef=bass middle=d
z |\
d2d2 d2d2 | c2c2 c2c2 |\
d2d2 d2d2 | A2A2 D2D :|\
|: z |
d2d2 d2d2 | c2c2 c2c2 |\
d2d2 d2d2 | A2A2 D2D :|

